dist/svgs/crypto-icons/icons/zrx.svg

<?xml version="1.0" encoding="UTF-8" standalone="yes"?>
<svg xmlns="http://www.w3.org/2000/svg" xmlns:xlink="http://www.w3.org/1999/xlink" width="510.66666666666663px" height="510.66666666666663px" viewBox="0 0 383 383" version="1.1">
  <g id="surface1">
    <path style=" stroke:none;fill-rule:evenodd;fill:rgb(0%,0%,0%);fill-opacity:1;" d="M 260.390625 86.175781 L 259.195312 86.773438 L 258.394531 87.371094 C 258.910156 87.625 259.382812 87.964844 259.792969 88.371094 L 260.792969 89.367188 C 269.84375 95.484375 277.832031 102.464844 284.753906 110.3125 C 291.675781 118.160156 297.535156 126.867188 302.328125 136.445312 C 302.59375 137.507812 302.726562 138.371094 302.726562 139.035156 C 302.726562 139.703125 302.460938 140.433594 301.925781 141.230469 L 292.34375 150.804688 L 282.757812 160.382812 C 280.699219 162.175781 278.699219 164.039062 276.765625 165.964844 L 271.175781 171.550781 L 314.308594 229.003906 L 335.875 257.726562 L 357.441406 286.453125 C 357.707031 286.1875 357.839844 285.988281 357.839844 285.855469 L 357.839844 285.253906 C 364.230469 274.085938 369.421875 262.582031 373.414062 250.746094 C 377.410156 238.910156 380.203125 226.609375 381.800781 213.839844 C 382.089844 211.515625 382.355469 209.191406 382.601562 206.859375 C 382.867188 204.332031 383 202.003906 383 199.878906 L 383 181.925781 C 383 181.660156 382.867188 181.328125 382.601562 180.925781 C 382.335938 180.527344 382.203125 180.0625 382.203125 179.53125 C 381.933594 176.605469 381.667969 173.613281 381.402344 170.554688 C 381.144531 167.546875 380.742188 164.550781 380.203125 161.578125 C 378.339844 149.875 375.542969 138.703125 371.816406 128.066406 C 368.355469 117.425781 363.898438 107.320312 358.4375 97.746094 C 352.980469 88.167969 346.65625 78.992188 339.46875 70.214844 C 332.546875 61.441406 324.691406 53.195312 315.90625 45.480469 C 315.105469 44.683594 314.441406 44.285156 313.910156 44.285156 C 313.375 44.285156 312.710938 44.683594 311.910156 45.480469 C 303.925781 52.394531 295.535156 59.246094 286.75 66.027344 C 277.964844 72.808594 269.179688 79.527344 260.390625 86.175781 Z M 294.738281 259.722656 C 288.613281 269.03125 281.492188 277.210938 273.371094 284.257812 C 265.25 291.304688 256.132812 297.222656 246.015625 302.011719 C 245.480469 302.277344 244.882812 302.410156 244.21875 302.410156 C 243.550781 302.410156 242.953125 302.011719 242.421875 301.214844 C 239.757812 298.820312 237.027344 296.292969 234.234375 293.632812 C 231.4375 290.972656 228.839844 288.445312 226.445312 286.054688 L 218.65625 278.273438 L 210.871094 270.492188 L 182.914062 292.039062 C 173.328125 299.21875 163.808594 306.464844 154.359375 313.78125 C 144.894531 321.101562 135.378906 328.351562 125.804688 335.523438 C 116.484375 342.707031 107.03125 350.019531 97.449219 357.464844 L 98.046875 358.066406 L 98.644531 358.265625 C 109.828125 364.648438 121.34375 369.769531 133.191406 373.625 C 145.039062 377.480469 157.351562 380.207031 170.132812 381.804688 C 172.261719 382.070312 174.59375 382.269531 177.121094 382.402344 C 179.722656 382.539062 182.320312 382.738281 184.910156 383 L 201.285156 383 C 201.816406 383 202.214844 382.867188 202.484375 382.601562 C 202.75 382.335938 203.28125 382.203125 204.082031 382.203125 C 206.269531 381.929688 208.46875 381.730469 210.671875 381.605469 C 212.933594 381.472656 214.996094 381.269531 216.859375 381.003906 C 236.296875 378.613281 254.734375 373.492188 272.171875 365.644531 C 289.613281 357.800781 305.65625 347.226562 320.296875 333.929688 C 323.492188 331.003906 326.6875 327.878906 329.882812 324.550781 C 333.078125 321.226562 336.273438 317.96875 339.46875 314.777344 C 332.011719 305.203125 324.757812 295.628906 317.703125 286.054688 C 310.648438 276.476562 303.390625 266.902344 295.9375 257.328125 C 295.9375 257.859375 295.804688 258.324219 295.535156 258.722656 C 295.269531 259.125 295.003906 259.457031 294.738281 259.722656 Z M 126.203125 294.832031 L 125.003906 294.230469 L 124.207031 293.632812 C 114.886719 287.515625 106.699219 280.402344 99.644531 272.289062 C 92.589844 264.175781 86.664062 255.066406 81.871094 244.960938 C 81.605469 244.164062 81.472656 243.496094 81.472656 242.964844 C 81.472656 242.433594 81.871094 241.902344 82.671875 241.371094 C 86.664062 237.113281 90.65625 232.925781 94.652344 228.800781 C 98.644531 224.679688 102.773438 220.492188 107.03125 216.234375 C 107.566406 215.703125 108.164062 215.039062 108.828125 214.242188 C 109.496094 213.441406 110.359375 212.644531 111.425781 211.847656 C 104.238281 202.273438 97.179688 192.5625 90.257812 182.722656 C 76.449219 163.089844 62.335938 143.671875 47.925781 124.476562 L 27.15625 94.953125 C 26.625 95.484375 26.359375 95.882812 26.359375 96.148438 C 26.359375 96.414062 26.09375 96.546875 25.558594 96.546875 C 18.902344 108.25 13.511719 120.617188 9.386719 133.652344 C 5.257812 146.683594 2.664062 159.980469 1.597656 173.546875 C 1.597656 175.144531 1.464844 176.738281 1.199219 178.335938 C 0.933594 179.929688 0.53125 181.527344 0 183.121094 L 0 199.878906 C 0.53125 200.144531 0.796875 200.542969 0.796875 201.074219 L 0.796875 202.273438 C 1.066406 206.261719 1.398438 210.117188 1.796875 213.839844 C 2.195312 217.566406 2.664062 221.421875 3.195312 225.410156 C 7.1875 244.5625 13.511719 262.515625 22.164062 279.269531 C 30.820312 296.027344 42.066406 311.453125 55.914062 325.550781 C 58.078125 327.710938 60.273438 329.839844 62.503906 331.933594 C 64.730469 334.027344 66.925781 336.15625 69.089844 338.316406 C 78.675781 330.871094 88.261719 323.621094 97.847656 316.574219 C 107.433594 309.523438 117.015625 302.542969 126.601562 295.628906 C 126.335938 295.363281 126.203125 295.164062 126.203125 295.03125 Z M 45.527344 69.019531 C 52.457031 78.605469 59.582031 88.050781 66.894531 97.347656 C 74.207031 106.644531 81.332031 116.085938 88.261719 125.671875 C 88.515625 125.15625 88.855469 124.683594 89.261719 124.277344 L 90.257812 123.277344 C 96.648438 113.96875 103.835938 105.789062 111.824219 98.742188 C 119.8125 91.695312 128.863281 85.777344 138.980469 80.988281 C 139.78125 80.722656 140.445312 80.589844 140.980469 80.589844 C 141.511719 80.589844 142.042969 80.988281 142.578125 81.785156 C 147.367188 86.574219 152.160156 91.230469 156.953125 95.75 L 171.332031 109.316406 C 171.597656 109.582031 171.929688 109.847656 172.328125 110.113281 C 172.730469 110.378906 173.0625 110.644531 173.328125 110.910156 C 182.648438 103.730469 192.097656 96.679688 201.683594 89.765625 C 211.003906 82.585938 220.386719 75.402344 229.839844 68.222656 C 239.292969 61.039062 248.808594 53.992188 258.394531 47.078125 L 287.148438 25.535156 C 267.714844 14.097656 246.945312 6.515625 224.847656 2.792969 C 203.015625 -0.929688 181.316406 -0.929688 159.75 2.792969 C 138.183594 6.515625 117.550781 13.964844 97.847656 25.132812 C 77.878906 36.039062 60.4375 50.667969 45.527344 69.019531 Z M 45.527344 69.019531 "/>
  </g>
</svg>

<svg xmlns="http://www.w3.org/2000/svg" viewBox="0 0 383 383"><path fill-rule="evenodd" d="M260.39 86.176l-1.195.597-.8.598c.515.254.988.594 1.398 1l1 .996c9.05 6.117 17.039 13.098 23.96 20.945 6.923 7.848 12.782 16.555 17.575 26.133.266 1.063.399 1.926.399 2.59 0 .668-.266 1.399-.801 2.195l-9.582 9.575-9.586 9.578a122.607 122.607 0 00-5.992 5.582l-5.59 5.586 43.133 57.453 21.566 28.723 21.566 28.726c.266-.265.399-.465.399-.598v-.601c6.39-11.168 11.582-22.672 15.574-34.508 3.996-11.836 6.79-24.137 8.387-36.906.289-2.324.554-4.649.8-6.98.266-2.528.399-4.856.399-6.981v-17.953c0-.266-.133-.598-.398-1-.266-.399-.399-.863-.399-1.395-.27-2.926-.535-5.918-.8-8.976a96.511 96.511 0 00-1.2-8.977c-1.863-11.703-4.66-22.875-8.387-33.512-3.46-10.64-7.918-20.746-13.378-30.32-5.458-9.578-11.782-18.754-18.97-27.531-6.921-8.774-14.777-17.02-23.562-24.735-.8-.796-1.465-1.195-1.996-1.195-.535 0-1.2.399-2 1.195a577.227 577.227 0 01-25.16 20.547c-8.785 6.782-17.57 13.5-26.36 20.149zm34.348 173.547c-6.125 9.308-13.246 17.488-21.367 24.535-8.121 7.047-17.238 12.965-27.355 17.754a3.982 3.982 0 01-1.797.398c-.668 0-1.266-.398-1.797-1.195a386.698 386.698 0 01-8.188-7.582 450.032 450.032 0 01-7.789-7.578l-7.789-7.782-7.785-7.78-27.957 21.546a2240.989 2240.989 0 00-28.555 21.742c-9.464 7.32-18.98 14.57-28.554 21.742a9150.796 9150.796 0 00-28.356 21.942l.598.601.598.2c11.183 6.382 22.699 11.504 34.546 15.359 11.848 3.855 24.16 6.582 36.942 8.18a98.48 98.48 0 006.988.597c2.602.137 5.2.336 7.79.598h16.374c.531 0 .93-.133 1.2-.398.265-.266.796-.399 1.597-.399a97.819 97.819 0 016.59-.598 75.319 75.319 0 006.187-.601c19.438-2.39 37.875-7.512 55.313-15.36 17.441-7.843 33.484-18.417 48.125-31.714a208.668 208.668 0 009.586-9.38 671.733 671.733 0 019.586-9.773 1350.037 1350.037 0 01-21.766-28.722 1353.383 1353.383 0 00-21.765-28.727c0 .531-.133.996-.403 1.395a6.387 6.387 0 01-.797 1zm-168.535 35.109l-1.2-.602-.796-.597c-9.32-6.117-17.508-13.23-24.562-21.344-7.055-8.113-12.98-17.223-17.774-27.328-.266-.797-.398-1.465-.398-1.996 0-.531.398-1.063 1.199-1.594a1061.85 1061.85 0 0124.36-25.137 29.025 29.025 0 001.796-1.992c.668-.8 1.531-1.597 2.598-2.394a1164.691 1164.691 0 01-21.168-29.125 2323.52 2323.52 0 00-42.332-58.246l-20.77-29.524c-.531.531-.797.93-.797 1.195 0 .266-.265.399-.8.399-6.657 11.703-12.047 24.07-16.172 37.105a177.769 177.769 0 00-7.79 39.895 29.13 29.13 0 01-.398 4.789A31.529 31.529 0 010 183.12v16.758c.531.266.797.664.797 1.195v1.2c.27 3.988.601 7.843 1 11.566a450.61 450.61 0 001.398 11.57c3.993 19.153 10.317 37.106 18.97 53.86 8.655 16.757 19.901 32.183 33.75 46.28 2.163 2.16 4.358 4.29 6.589 6.384a307.514 307.514 0 016.586 6.382 1363.18 1363.18 0 0128.758-21.742 3817.24 3817.24 0 0128.754-20.945c-.266-.266-.399-.465-.399-.598zM45.527 69.02a874.987 874.987 0 0021.368 28.328 874.835 874.835 0 0121.367 28.324 5.27 5.27 0 011-1.395l.996-1c6.39-9.308 13.578-17.488 21.566-24.535 7.989-7.047 17.04-12.965 27.156-17.754.801-.265 1.465-.398 2-.398.532 0 1.063.398 1.598 1.195a683.97 683.97 0 0014.375 13.965l14.379 13.566c.266.266.598.532.996.797a6.48 6.48 0 011 .797 1120.4 1120.4 0 0128.356-21.144 5191.27 5191.27 0 0128.156-21.543 1423.449 1423.449 0 0128.555-21.145l28.753-21.543c-19.433-11.437-40.203-19.02-62.3-22.742-21.832-3.723-43.532-3.723-65.098 0-21.566 3.723-42.2 11.172-61.902 22.34-19.97 10.906-37.41 25.535-52.32 43.887zm0 0"/></svg>
